X: 3703
T: Gothenburg's Welcome
P: Wha can help it
C:Niel Gow
B:RSCDS 37-3
Z:Anselm Lingnau <anselm@strathspey.org>
R:Jig (8x32)
M:6/8
L:1/8
K:A
|:C/B,/|"A"A,>CE ECE|"D"FEF "A"A2 B|c2 A "D"d2 c|"E"BB,B, B,2 C/B,/|\
      "A"A,>CE ECE|"D"FEF A2 B|
                               "A"c2 A "E7"d2 B|"A"cA"D"A "A"A2:|\
c/d/|"A"e>fe ece|"D"agf "A"ecA|"E7"d/e/fd "A"ecA|"E"GBB B2 c/d/|
     "A"e>fe "A7"ece|"D"agf "A"ecA|"Bm"dcd "E"Bed|"A"cAA A2 c/d/|\
     "A"efe ece|"D"agf "A"ecA|
                              "E7"d/e/fd "A"ecA|"E"GBB B2 C/B,/|\
     "A"A,>CE ECE|"D"FEF A2 B|"A"A/B/cA "E7"B/c/dB|"A"cA"D"A "A"A2|]
%%center Book37/3703-Gothenburgs_Welcome-AL.abc

%%sep 1 1 500
%%sep 1 1 500

